Sources/FrostedUI/Resources/Icons.xcassets/creditCardFilled16.imageset/credit-card-filled-16.svg

<svg width="16" height="16" viewBox="0 0 16 16" fill="none" xmlns="http://www.w3.org/2000/svg" data-fui-icon="true">
  <path d="M0 4.54C0 3.1372 1.1372 2 2.54 2H13.46C14.8628 2 16 3.1372 16 4.54V5H0V4.54Z" fill="currentColor" />
  <path
    fill-rule="evenodd"
    clip-rule="evenodd"
    d="M0 7V11.46C0 12.8628 1.1372 14 2.54 14H13.46C14.8628 14 16 12.8628 16 11.46V7H0ZM2.75 10C2.75 9.44772 3.19772 9 3.75 9H6.25C6.80228 9 7.25 9.44772 7.25 10C7.25 10.5523 6.80228 11 6.25 11H3.75C3.19772 11 2.75 10.5523 2.75 10Z"
    fill="currentColor"
  />
</svg>

<svg xmlns="http://www.w3.org/2000/svg" width="16" height="16" fill="none" data-fui-icon="true" viewBox="0 0 16 16"><path fill="currentColor" d="M0 4.54A2.54 2.54 0 0 1 2.54 2h10.92A2.54 2.54 0 0 1 16 4.54V5H0z"/><path fill="currentColor" fill-rule="evenodd" d="M0 7v4.46A2.54 2.54 0 0 0 2.54 14h10.92A2.54 2.54 0 0 0 16 11.46V7zm2.75 3a1 1 0 0 1 1-1h2.5a1 1 0 0 1 0 2h-2.5a1 1 0 0 1-1-1" clip-rule="evenodd"/></svg>
